Simply-Red-Circles/scalable/apps/ubuntusoftware.svg

<svg xmlns="http://www.w3.org/2000/svg" width="48" height="48" viewBox="0 0 12.7 12.7"><path fill="#a02c2c" d="M6.34.07a6.29 6.29 0 0 0-6.29 6.3 6.29 6.29 0 0 0 6.3 6.28 6.29 6.29 0 0 0 6.28-6.29A6.29 6.29 0 0 0 6.34.07zm-.01.94a5.4 5.4 0 0 1 5.4 5.4 5.4 5.4 0 0 1-5.4 5.41 5.4 5.4 0 0 1-5.41-5.4A5.4 5.4 0 0 1 6.32 1zm.04.43A1.69 1.69 0 0 0 4.7 3.13v.56H3.6A.61.61 0 0 0 3 4.3v5.52c0 .34.28.62.61.62h5.52c.34 0 .62-.28.62-.62V4.3a.61.61 0 0 0-.62-.61H8.06v-.56a1.69 1.69 0 0 0-1.69-1.69zm0 .56C7 2 7.5 2.5 7.5 3.13v.56H5.25v-.56c0-.63.5-1.13 1.13-1.13zM4.95 4.25c.16 0 .3.13.3.28 0 .16-.14.29-.3.29a.28.28 0 0 1-.28-.29c0-.15.12-.28.28-.28zm2.81 0c.16 0 .3.13.3.28 0 .16-.14.29-.3.29a.28.28 0 0 1-.28-.29c0-.15.12-.28.28-.28zm-1.37 1.9a1.46 1.43 0 0 1 1.46 1.43A1.46 1.43 0 0 1 6.4 9a1.46 1.43 0 0 1-1.46-1.42A1.46 1.43 0 0 1 6.4 6.15z"/><path fill="#d45500" d="M5.75 6.73a.22.22 0 1 0 0 .43.22.22 0 0 0 0-.43zm.65 0a.22.22 0 1 0 0 .43.22.22 0 0 0 0-.43zm.65 0a.22.22 0 1 0 0 .43.22.22 0 0 0 0-.43zm-1.3.65a.22.22 0 1 0 0 .43.22.22 0 0 0 0-.43zm.65 0a.22.22 0 1 0 0 .43.22.22 0 0 0 0-.43zm.65 0a.22.22 0 1 0 0 .43.22.22 0 0 0 0-.43zm-1.3.65a.22.22 0 1 0 0 .43.22.22 0 0 0 0-.43zm.65 0a.22.22 0 1 0 0 .43.22.22 0 0 0 0-.43zm.65 0a.22.22 0 1 0 0 .43.22.22 0 0 0 0-.43z" opacity=".75"/></svg>

<?xml version="1.0" encoding="UTF-8" standalone="no"?>
<svg
   xmlns:dc="http://purl.org/dc/elements/1.1/"
   xmlns:cc="http://creativecommons.org/ns#"
   xmlns:rdf="http://www.w3.org/1999/02/22-rdf-syntax-ns#"
   xmlns:svg="http://www.w3.org/2000/svg"
   xmlns="http://www.w3.org/2000/svg"
   xmlns:sodipodi="http://sodipodi.sourceforge.net/DTD/sodipodi-0.dtd"
   xmlns:inkscape="http://www.inkscape.org/namespaces/inkscape"
   width="48"
   height="48"
   viewBox="0 0 12.7 12.7"
   version="1.1"
   id="svg6"
   sodipodi:docname="ubuntusoftware.svg"
   inkscape:version="0.92.4 (5da689c313, 2019-01-14)">
  <metadata
     id="metadata12">
    <rdf:RDF>
      <cc:Work
         rdf:about="">
        <dc:format>image/svg+xml</dc:format>
        <dc:type
           rdf:resource="http://purl.org/dc/dcmitype/StillImage" />
        <dc:title></dc:title>
      </cc:Work>
    </rdf:RDF>
  </metadata>
  <defs
     id="defs10" />
  <sodipodi:namedview
     pagecolor="#ffffff"
     bordercolor="#666666"
     borderopacity="1"
     objecttolerance="10"
     gridtolerance="10"
     guidetolerance="10"
     inkscape:pageopacity="0"
     inkscape:pageshadow="2"
     inkscape:window-width="1087"
     inkscape:window-height="480"
     id="namedview8"
     showgrid="false"
     inkscape:zoom="4.9166667"
     inkscape:cx="2.1355932"
     inkscape:cy="24"
     inkscape:window-x="0"
     inkscape:window-y="25"
     inkscape:window-maximized="0"
     inkscape:current-layer="svg6" />
  <path
     d="M 6.34,0.07 A 6.29,6.29 0 0 0 0.05,6.37 6.29,6.29 0 0 0 6.35,12.65 6.29,6.29 0 0 0 12.63,6.36 6.29,6.29 0 0 0 6.34,0.07 Z M 6.33,1.01 a 5.4,5.4 0 0 1 5.4,5.4 5.4,5.4 0 0 1 -5.4,5.41 A 5.4,5.4 0 0 1 0.92,6.42 5.4,5.4 0 0 1 6.32,1 Z M 6.37,1.44 A 1.69,1.69 0 0 0 4.7,3.13 V 3.69 H 3.6 A 0.61,0.61 0 0 0 3,4.3 v 5.52 c 0,0.34 0.28,0.62 0.61,0.62 h 5.52 c 0.34,0 0.62,-0.28 0.62,-0.62 V 4.3 A 0.61,0.61 0 0 0 9.13,3.69 H 8.06 V 3.13 A 1.69,1.69 0 0 0 6.37,1.44 Z M 6.37,2 C 7,2 7.5,2.5 7.5,3.13 V 3.69 H 5.25 V 3.13 C 5.25,2.5 5.75,2 6.38,2 Z M 4.95,4.25 c 0.16,0 0.3,0.13 0.3,0.28 0,0.16 -0.14,0.29 -0.3,0.29 A 0.28,0.28 0 0 1 4.67,4.53 c 0,-0.15 0.12,-0.28 0.28,-0.28 z m 2.81,0 c 0.16,0 0.3,0.13 0.3,0.28 0,0.16 -0.14,0.29 -0.3,0.29 A 0.28,0.28 0 0 1 7.48,4.53 C 7.48,4.38 7.6,4.25 7.76,4.25 Z M 6.39,6.15 A 1.46,1.43 0 0 1 7.85,7.58 1.46,1.43 0 0 1 6.4,9 1.46,1.43 0 0 1 4.94,7.58 1.46,1.43 0 0 1 6.4,6.15 Z"
     id="path2"
     inkscape:connector-curvature="0"
     style="fill:#a02c2c" />
  <path
     d="m 5.75,6.73 a 0.22,0.22 0 1 0 0,0.43 0.22,0.22 0 0 0 0,-0.43 z m 0.65,0 a 0.22,0.22 0 1 0 0,0.43 0.22,0.22 0 0 0 0,-0.43 z m 0.65,0 a 0.22,0.22 0 1 0 0,0.43 0.22,0.22 0 0 0 0,-0.43 z m -1.3,0.65 a 0.22,0.22 0 1 0 0,0.43 0.22,0.22 0 0 0 0,-0.43 z m 0.65,0 a 0.22,0.22 0 1 0 0,0.43 0.22,0.22 0 0 0 0,-0.43 z m 0.65,0 a 0.22,0.22 0 1 0 0,0.43 0.22,0.22 0 0 0 0,-0.43 z m -1.3,0.65 a 0.22,0.22 0 1 0 0,0.43 0.22,0.22 0 0 0 0,-0.43 z m 0.65,0 a 0.22,0.22 0 1 0 0,0.43 0.22,0.22 0 0 0 0,-0.43 z m 0.65,0 a 0.22,0.22 0 1 0 0,0.43 0.22,0.22 0 0 0 0,-0.43 z"
     id="path4"
     inkscape:connector-curvature="0"
     style="opacity:0.75;fill:#d45500" />
</svg>
